X:221
T:Polska efter Nils Bernhard Ljunggren
T:(SvL Småland 221)
R:Polska
B:Svenska Låtar Småland
O:Markaryd, Småland
S:Nils Bernhard Ljunggren
N:SvL: * Här togs ibland e.
M:3/4
L:1/16
K:Bb
BABc B2F2 D2B,2|BABc d2Bd c2F2|F2A(c e2)d2 c2B2|ABAG FGFE D2B,2|
BABc B2F2 D2B,2|BABc d2Bd c2F2|F2Ac f=efg f2_e2|ecAc c2B2 B,4:|
|:fdBd fdBd fdBd|ecAc ecAc ecAc|fdBd fdBd fdBd|ecAc ecAc ecAc|
B2b2 agf"*"e d2c2|B2g2 fgf"*"e d2F2|GFED E2g2 f2e2|dcBA A2B2 B,4:|

